X: 100
T: Ciebie, o Boże niezmierzony,
C: Mikołaj Gomółka
%%abc-version 2.0
%%abcx-abcm2ps-target-version 5.9.1 (29 Sep 2008)
%%abc-creator hum2abc beta
%%abcx-conversion-date 2021/10/04 07:59:10
%%abc-edited-by Marta Lawrence
%%abcx-initial-encoding-date 2020-02-17
%%humdrum-veritas 1812565090
%%humdrum-veritas-data 535403303
%%linebreak <none>
%%barnumbers 0
L: 1/4
M: C|
N: Derived from pl-wn--sd-xvi-qu-273--101_gomolka-mikolaj--ciebie-o-boze-niezmierzony.krn
%%staves [1 2 3 4]
V: 1
V: 2 clef=alto
V: 3 clef=alto
V: 4 clef=bass
K: F
[V:1] F2>F2A2A4 [|] 
[V:2] D2>E2F2F4 [|] 
[V:3] B,4A,2C2 [|] 
[V:4] B,,4F,,2F,4 [|] 
[V:1] B2A2c2 [|] 
[V:2] DEF2C2 [|] 
[V:3] D4C2FE [|] 
[V:4] G,2A,2F,2 [|] 
[V:1] B2A4G2 [|] 
[V:2] D2E2F2ED [|] 
[V:3] D2C2B,4 [|] 
[V:4] B,,2C,2D,2E,2 [|] 
[V:1] A2A2A3G [|] 
[V:2] C2F2E4 [|] 
[V:3] A,2D4^C2 [|] 
[V:4] F,2D,2A,2A,2 [|] 
[V:1] F2GABAGF [|] 
[V:2] D4D2D2 [|] 
[V:3] D2>=C2B,2B,2 [|] 
[V:4] B,2>A,2G,F,G,2 [|] 
[V:1] G2G2^F2A2 [|] 
[V:2] D2E2D2F2 [|] 
[V:3] B,2CB,A,2D2 [|] 
[V:4] G,2C,2D,2D,2 [|] 
[V:1] A2A2G3A [|] 
[V:2] E2^F2G2G2 [|] 
[V:3] ^C2D2B,3=C [|] 
[V:4] A,,2D,2G,,4 [|] 
[V:1] B4B2A4 [|] 
[V:2] G,6A,2 [|] 
[V:3] D4D3C [|] 
[V:4] G,6^F,2 [|] 
[V:1] G2A2A2 [|] 
[V:2] B,2G,2D2C2 [|] 
[V:3] B,4A,2A,2 [|] 
[V:4] G,4D,2=F,2 [|] 
[V:1] A2=F2G2A2 [|] 
[V:2] =F2F2EDC2 [|] 
[V:3] C2D2C2A,2 [|] 
[V:4] F,2D,2E,2F,2 [|] 
[V:1] GFF4E2 [|] 
[V:2] D2D2C3B, [|] 
[V:3] B,2>A,2G,F,G,2 [|] 
[V:4] B,,2B,,2C,4 [|] 
[V:1] F32 |]  
[V:2] A,32 |]  
[V:3] F,32 |]  
[V:4] F,,32 |]  


